icons/file-16.svg

<svg width="16" height="16" viewBox="0 0 16 16" fill="none" xmlns="http://www.w3.org/2000/svg">
<path fill-rule="evenodd" clip-rule="evenodd" d="M3.75 1.5C3.61193 1.5 3.5 1.61193 3.5 1.75V14.25C3.5 14.3881 3.61193 14.5 3.75 14.5H13.25C13.3881 14.5 13.5 14.3881 13.5 14.25V6H10.75C9.7835 6 9 5.2165 9 4.25V1.5H3.75ZM10.5 1.5615V4.25C10.5 4.38807 10.6119 4.5 10.75 4.5H13.4385C13.4348 4.49569 13.4308 4.4915 13.4268 4.48744L10.5126 1.57322C10.5085 1.56916 10.5043 1.56525 10.5 1.5615ZM2 1.75C2 0.783502 2.7835 0 3.75 0H10.3358C10.7999 0 11.245 0.184374 11.5732 0.512563L14.4874 3.42678C14.8156 3.75497 15 4.20008 15 4.66421V14.25C15 15.2165 14.2165 16 13.25 16H3.75C2.7835 16 2 15.2165 2 14.25V1.75Z" fill="#24292F"/>
</svg>

<svg xmlns="http://www.w3.org/2000/svg" width="16" height="16" viewBox="0 0 16 16"><path fill-rule="evenodd" d="M3.75 1.5a.25.25 0 00-.25.25v12.5c0 .138.112.25.25.25h9.5a.25.25 0 00.25-.25V6h-2.75A1.75 1.75 0 019 4.25V1.5H3.75zm6.75.062V4.25c0 .138.112.25.25.25h2.688a.252.252 0 00-.011-.013l-2.914-2.914a.272.272 0 00-.013-.011zM2 1.75C2 .784 2.784 0 3.75 0h6.586c.464 0 .909.184 1.237.513l2.914 2.914c.329.328.513.773.513 1.237v9.586A1.75 1.75 0 0113.25 16h-9.5A1.75 1.75 0 012 14.25V1.75z"/></svg>
